src/assets/svg/linkedin.svg

<?xml version="1.0" encoding="UTF-8"?>
<svg width="20px" height="20px" viewBox="0 0 20 20" version="1.1" xmlns="http://www.w3.org/2000/svg" xmlns:xlink="http://www.w3.org/1999/xlink">
    <!-- Generator: Sketch 50.2 (55047) - http://www.bohemiancoding.com/sketch -->
    <title>linkedin</title>
    <desc>Created with Sketch.</desc>
    <defs></defs>
    <g id="Page-1" stroke="none" stroke-width="1" fill="none" fill-rule="evenodd">
        <g id="Artboard" transform="translate(-515.000000, -846.000000)" fill="#000000" fill-rule="nonzero">
            <g id="linkedin" transform="translate(515.000000, 846.000000)">
                <path d="M4.54427083,6.4986376 L4.54427083,20 L0.247395833,20 L0.247395833,6.4986376 L4.54427083,6.4986376 Z M4.81770833,2.32970027 C4.82638889,2.99273388 4.60720486,3.54677566 4.16015625,3.99182561 C3.71310764,4.43687557 3.125,4.65940054 2.39583333,4.65940054 L2.36979167,4.65940054 C1.65798611,4.65940054 1.08506944,4.43687557 0.651041667,3.99182561 C0.217013889,3.54677566 0,2.99273388 0,2.32970027 C0,1.65758401 0.223524306,1.10127157 0.670572917,0.660762943 C1.11762153,0.220254314 1.70138889,0 2.421875,0 C3.14236111,0 3.71961806,0.220254314 4.15364583,0.660762943 C4.58767361,1.10127157 4.80902778,1.65758401 4.81770833,2.32970027 Z M20,12.2615804 L20,20 L15.7161458,20 L15.7161458,12.7792916 C15.7161458,11.8256131 15.5403646,11.0785649 15.1888021,10.5381471 C14.8372396,9.99772934 14.2881944,9.72752044 13.5416667,9.72752044 C12.9947917,9.72752044 12.5368924,9.88419619 12.1679688,10.1975477 C11.7990451,10.5108992 11.5234375,10.8991826 11.3411458,11.3623978 C11.2456597,11.6348774 11.1979167,12.0027248 11.1979167,12.4659401 L11.1979167,20 L6.9140625,20 C6.93142361,16.3760218 6.94010417,13.4377838 6.94010417,11.1852861 C6.94010417,8.93278837 6.93576389,7.58855586 6.92708333,7.15258856 L6.9140625,6.4986376 L11.1979167,6.4986376 L11.1979167,8.46049046 L11.171875,8.46049046 C11.3454861,8.16984559 11.5234375,7.91553134 11.7057292,7.69754768 C11.8880208,7.47956403 12.1332465,7.24341508 12.4414062,6.98910082 C12.749566,6.73478656 13.1271701,6.53723887 13.5742188,6.39645777 C14.0212674,6.25567666 14.5182292,6.1852861 15.0651042,6.1852861 C16.5494792,6.1852861 17.7430556,6.70072661 18.6458333,7.73160763 C19.5486111,8.76248865 20,10.2724796 20,12.2615804 Z" id="Shape"></path>
            </g>
        </g>
    </g>
</svg>

<svg width="20" height="20" xmlns="http://www.w3.org/2000/svg"><path d="M4.544 6.499V20H.247V6.499h4.297zm.274-4.17c.008.664-.21 1.218-.658 1.663-.447.445-1.035.667-1.764.667H2.37c-.712 0-1.285-.222-1.719-.667C.217 3.547 0 2.992 0 2.33 0 1.658.224 1.1.67.66 1.119.22 1.702 0 2.423 0c.72 0 1.298.22 1.732.66.434.441.655.998.664 1.67zM20 12.263V20h-4.284v-7.22c0-.954-.176-1.701-.527-2.242-.352-.54-.9-.81-1.647-.81-.547 0-1.005.156-1.374.47a2.891 2.891 0 0 0-.827 1.164c-.095.273-.143.64-.143 1.104V20H6.914c.017-3.624.026-6.562.026-8.815 0-2.252-.004-3.596-.013-4.032l-.013-.654h4.284V8.46h-.026c.173-.29.351-.544.534-.762.182-.218.427-.455.735-.709a3.328 3.328 0 0 1 1.133-.593c.447-.14.944-.21 1.491-.21 1.484 0 2.678.515 3.58 1.546.904 1.03 1.355 2.54 1.355 4.53z" fill="#000" fill-rule="nonzero"/></svg>
